FlatUX/src/svg/Commodore - VIC-20-content.svg

<svg enable-background="new 0 0 256 256" viewBox="0 0 256 256" xmlns="http://www.w3.org/2000/svg"><path d="m244 188h-232v-120c0-2.209 1.791-4 4-4h224c2.209 0 4 1.791 4 4z" fill="#bdc1c6"/><path d="m20 68h216v108h-216z" fill="#dadfe0"/><path d="m228 168h-200c-2.209 0-4-1.791-4-4v-88c0-2.209 1.791-4 4-4h200c2.209 0 4 1.791 4 4v88c0 2.209-1.791 4-4 4z" fill="#1b80bb"/><g fill="#d1d6d2"><path d="m236 176 8 12v-120.764c0-1.487-1.565-2.454-2.894-1.789l-5.106 2.553z"/><path d="m20 176-8 12v-120.764c0-1.487 1.565-2.454 2.894-1.789l5.106 2.553z"/></g></svg>

<svg xmlns="http://www.w3.org/2000/svg" viewBox="0 0 256 256"><path fill="#bdc1c6" d="M244 188H12V68a4 4 0 0 1 4-4h224a4 4 0 0 1 4 4z"/><path fill="#dadfe0" d="M20 68h216v108H20z"/><path fill="#1b80bb" d="M228 168H28a4 4 0 0 1-4-4V76a4 4 0 0 1 4-4h200a4 4 0 0 1 4 4v88a4 4 0 0 1-4 4"/><path fill="#d1d6d2" d="m236 176 8 12V67.236c0-1.487-1.565-2.454-2.894-1.789L236 68zm-216 0-8 12V67.236c0-1.487 1.565-2.454 2.894-1.789L20 68z"/></svg>
